source/assets/images/icon-color-48x.svg

<svg fill="none" height="48" viewBox="0 0 48 48" width="48" xmlns="http://www.w3.org/2000/svg"><path clip-rule="evenodd" d="m6 0c-3.31371 0-6 2.68629-6 6v36c0 3.3137 2.68629 6 6 6h36c3.3137 0 6-2.6863 6-6v-36c0-3.31371-2.6863-6-6-6zm0 2h22.7693c.9221 0 1.1777 1.50096.3302 1.86438-4.4319 1.90038-8.52 4.44879-12.1452 7.52602-1.2446 1.0566-3.1044 1.0452-4.2588-.1092l-7.22034-7.22033c-.76347-.76347-.55488-2.06087.52484-2.06087zm-1.93899 3.47515c-.76352-.76353-2.06101-.55493-2.06101.52485v22.7693c0 .9221 1.50096 1.1777 1.86438.3302 1.9004-4.432 4.44883-8.5201 7.52612-12.1452 1.0565-1.2447 1.0452-3.1044-.1092-4.2589zm1.93899 40.52485c-1.09189 0-2.08159-.4375-2.80339-1.1468-.84702-.8323-.91359-2.1218-.74872-3.2978 2.83873-20.2481 18.85931-36.26878 39.10751-39.10751 1.176-.16488 2.4655-.0983 3.2978.74872.7093.72179 1.1468 1.7115 1.1468 2.80339v7.2269c0 1.5851-1.2375 2.8954-2.805 3.1315-13.0211 1.9607-23.4719 11.7675-26.3841 24.4517-.1412.6152.3351 1.1899.9663 1.1899.4788 0 .8897-.3383.9979-.8047 2.6995-11.6401 12.1738-20.6831 24.0438-22.7496 1.7086-.2974 3.1811 1.1163 3.1811 2.8506 0 .0347-.0006.0693-.0018.1037h.0018v7.9722.0278.0746c0 1.5134-1.1399 2.76-2.5898 3.1935-4.17 1.2465-7.6257 4.1478-9.605 7.9418-.3387.6492.1573 1.3901.8895 1.3901.3986 0 .7586-.2311.9463-.5827 1.5252-2.8577 4.0126-5.1243 7.0296-6.3672 1.6882-.6955 3.3294.7255 3.3294 2.5513v4.3986c0 2.2091-1.7909 4-4 4h-4.3986c-.0339 0-.0677-.0006-.1014-.0017v.0017h-8c-.0084.0001-.0169 0-.0254 0h-.1024c-1.7632 0-3.1635-1.5232-2.7453-3.2361 1.816-7.438 7.4135-13.3938 14.6399-15.7144.4313-.1385.7332-.5342.7332-.9872 0-.6617-.6251-1.1458-1.2558-.946-8.2411 2.6106-14.5565 9.5498-16.2771 18.1483-.3064 1.5309-1.6095 2.7354-3.1708 2.7354-.0154 0-.0309-.0001-.0463-.0004l-8 .0004h-.0231c-1.7179 0-3.1118-1.4444-2.8813-3.1467 2.207-16.2999 14.7491-29.3178 30.8114-32.2388.4838-.088.843-.5091.843-1.00096 0-.61153-.5456-1.08536-1.1474-.97681-17.3834 3.13567-30.86209 17.50387-32.65071 35.31937-.11465 1.1419-1.05424 2.0439-2.20189 2.0439z" fill="#000" fill-rule="evenodd"/></svg>

<svg width="48" height="48" viewBox="0 0 48 48" fill="none" xmlns="http://www.w3.org/2000/svg">
<path fill-rule="evenodd" clip-rule="evenodd" d="M6 0C2.68629 0 0 2.68629 0 6V42C0 45.3137 2.68629 48 6 48H42C45.3137 48 48 45.3137 48 42V6C48 2.68629 45.3137 0 42 0H6ZM6 2H28.7693C29.6914 2 29.947 3.50096 29.0995 3.86438C24.6676 5.76476 20.5795 8.31317 16.9543 11.3904C15.7097 12.447 13.8499 12.4356 12.6955 11.2812L5.47516 4.06087C4.71169 3.2974 4.92028 2 6 2ZM4.06101 5.47515C3.29749 4.71162 2 4.92022 2 6V28.7693C2 29.6914 3.50096 29.947 3.86438 29.0995C5.76478 24.6675 8.31321 20.5794 11.3905 16.9543C12.447 15.7096 12.4357 13.8499 11.2813 12.6954L4.06101 5.47515ZM6 46C4.90811 46 3.91841 45.5625 3.19661 44.8532C2.34959 44.0209 2.28302 42.7314 2.44789 41.5554C5.28662 21.3073 21.3072 5.28662 41.5554 2.44789C42.7314 2.28301 44.0209 2.34959 44.8532 3.19661C45.5625 3.9184 46 4.90811 46 6C46 8.40861 46 10.8201 46 13.2269C46 14.812 44.7625 16.1223 43.195 16.3584C30.1739 18.3191 19.7231 28.1259 16.8109 40.8101C16.6697 41.4253 17.146 42 17.7772 42C18.256 42 18.6669 41.6617 18.7751 41.1953C21.4746 29.5552 30.9489 20.5122 42.8189 18.4457C44.5275 18.1483 46 19.562 46 21.2963C46 21.331 45.9994 21.3656 45.9982 21.4H46V29.3722V29.4V29.4746C46 30.988 44.8601 32.2346 43.4102 32.6681C39.2402 33.9146 35.7845 36.8159 33.8052 40.6099C33.4665 41.2591 33.9625 42 34.6947 42C35.0933 42 35.4533 41.7689 35.641 41.4173C37.1662 38.5596 39.6536 36.293 42.6706 35.0501C44.3588 34.3546 46 35.7756 46 37.6014V42C46 44.2091 44.2091 46 42 46H37.6014C37.5675 46 37.5337 45.9994 37.5 45.9983V46H29.5C29.4916 46.0001 29.4831 46 29.4746 46H29.3722C27.609 46 26.2087 44.4768 26.6269 42.7639C28.4429 35.3259 34.0404 29.3701 41.2668 27.0495C41.6981 26.911 42 26.5153 42 26.0623C42 25.4006 41.3749 24.9165 40.7442 25.1163C32.5031 27.7269 26.1877 34.6661 24.4671 43.2646C24.1607 44.7955 22.8576 46 21.2963 46C21.2809 46 21.2654 45.9999 21.25 45.9996L13.25 46H13.2269C11.509 46 10.1151 44.5556 10.3456 42.8533C12.5526 26.5534 25.0947 13.5355 41.157 10.6145C41.6408 10.5265 42 10.1054 42 9.61354C42 9.00201 41.4544 8.52818 40.8526 8.63673C23.4692 11.7724 9.99051 26.1406 8.20189 43.9561C8.08724 45.098 7.14765 46 6 46Z" fill="black"/>
</svg>
